resources/svg/solid/cat.svg

<svg xmlns="http://www.w3.org/2000/svg" fill="currentColor" stroke="none" viewBox="0 0 24 24"><path d="M17 14a5 5 0 0 0 2.71-.81L20 13a3.16 3.16 0 0 0 .45-.37l.21-.2a4.48 4.48 0 0 0 .48-.58l.06-.08a4.28 4.28 0 0 0 .41-.76 1.57 1.57 0 0 0 .09-.23 4.21 4.21 0 0 0 .2-.63l.06-.25A5.5 5.5 0 0 0 22 9V2l-3 3h-4l-3-3v7a5 5 0 0 0 5 5zm2-7a1 1 0 1 1-1 1 1 1 0 0 1 1-1zm-4 0a1 1 0 1 1-1 1 1 1 0 0 1 1-1z"/><path d="M11 22v-5H8v5H5V11.9a3.49 3.49 0 0 1-2.48-1.64A3.59 3.59 0 0 1 2 8.5 3.65 3.65 0 0 1 6 5a1.89 1.89 0 0 0 2-2 1 1 0 0 1 1-1 1 1 0 0 1 1 1 3.89 3.89 0 0 1-4 4C4.19 7 4 8.16 4 8.51S4.18 10 6 10h5.09A6 6 0 0 0 19 14.65V22h-3v-5h-2v5z"/></svg>

<svg xmlns="http://www.w3.org/2000/svg" fill="currentColor" stroke="none" viewBox="0 0 24 24"><path d="M17,14a5,5,0,0,0,2.71-.81L20,13a3.16,3.16,0,0,0,.45-.37l.21-.2a4.48,4.48,0,0,0,.48-.58l.06-.08a4.28,4.28,0,0,0,.41-.76,1.57,1.57,0,0,0,.09-.23,4.21,4.21,0,0,0,.2-.63l.06-.25A5.5,5.5,0,0,0,22,9V2L19,5H15L12,2V9A5,5,0,0,0,17,14Zm2-7a1,1,0,1,1-1,1A1,1,0,0,1,19,7ZM15,7a1,1,0,1,1-1,1A1,1,0,0,1,15,7Z"/><path d="M11,22V17H8v5H5V11.9a3.49,3.49,0,0,1-2.48-1.64A3.59,3.59,0,0,1,2,8.5,3.65,3.65,0,0,1,6,5,1.89,1.89,0,0,0,8,3,1,1,0,0,1,9,2H9a1,1,0,0,1,1,1A3.89,3.89,0,0,1,6,7C4.19,7,4,8.16,4,8.51S4.18,10,6,10h5.09A6,6,0,0,0,19,14.65V22H16V17H14v5Z"/></svg>
